X:1160
M:C|
L:1/8
Q:1/2=66
K:G
   G2BG A2cA|B2dB c2ed|cBAG D2e2|g2d2 B2G2:|
   gfge edcB|efge edcB|ca2c Bg2B|A2BG GFED |
   G2BG A2cA|BcdB c2ed|cBAG D2f2|g2d2 B2G2:|

